X:1
T:The Holland Handkerchief
M:4/2
L:1/4
K:F
 G A c| A2- G F D ^C| D3 G G G| G2 D2 F G| A3 D D D|
M:4/2
 c2 d3 d c G| F3 G A c A2-| G F D ^C D3||

